images/originals/solidus-dark-logo.svg

<svg width="389pt" height="112pt" viewBox="0 0 389 112" xmlns="http://www.w3.org/2000/svg"><path fill="#2d2b28" d="M0 0h389v112H0V0z"/><path fill="#eb8f35" d="M12.34 12.34c18.43-.07 36.87-.07 55.3.01.04 29.75.08 59.51-.02 89.26-18.42.06-36.84.06-55.26 0-.14-29.75-.09-59.51-.02-89.27z"/><path fill="#fff" d="M187.54 13.06c4.74 1.93 9.69 4.32 12.79 8.55 2.65 3.56 2.5 8.15 2.68 12.36.04 9.36 0 18.72-.01 28.08.08 2.39-.02 4.9.92 7.16 2.09 2.76 5.48 4.06 8.34 5.86-1.41 2.67-2.87 5.32-4.48 7.88-4.87-2.35-10.12-4.86-13.1-9.6-2.62-4.31-2.04-9.54-2.09-14.35-.06-9.6.15-19.2-.1-28.8.09-5.22-5.52-7.16-9.19-9.49 1.36-2.58 2.79-5.12 4.24-7.65z"/><path fill="#2d2b28" d="M20.11 20.12c13.25-.13 26.52-.13 39.77-.01.1 24.57.18 49.15-.04 73.71-13.24.21-26.49.15-39.74.04-.23-24.58-.23-49.17.01-73.74z"/><path fill="#fff" d="M220.47 21.24c3.09-1.78 7.54 1.19 7.07 4.75.19 4.36-6.13 6.55-8.73 3.12-2.38-2.31-1.25-6.57 1.66-7.87zM274.38 20.81c3.32-.13 6.63-.14 9.95-.08.08 20.8.12 41.61-.02 62.42-3.26.08-6.52.07-9.77-.05l-.33-4.58c-6.05 3.52-13.24 5.51-20.23 4.18-10.29-1.19-19.14-9.56-21.07-19.71-2.69-12.09 5.61-25.18 17.5-28.32 8.03-2.55 16.78-.73 23.92 3.46.1-5.77 0-11.55.05-17.32z"/><path fill="#eb8f35" d="M32.24 30.18c4.93 2.09 10.56 5.33 11.29 11.19.66 9.85-.31 19.76.39 29.6.12 3.93 4.36 5.24 7.02 7.24a74.82 74.82 0 0 1-3.14 5.77C42.82 82 37.08 78.71 36.44 72.81c-.47-8.94.07-17.91-.17-26.86-.12-1.78-.21-3.63-.96-5.27-1.82-1.93-4.16-3.26-6.33-4.75 1.05-1.94 2.14-3.85 3.26-5.75z"/><path fill="#fff" d="M96.42 39.43c3.37-3.84 8.56-5.57 13.54-5.87 7.14-.38 14.12 2.33 19.86 6.45-1.77 2.39-3.59 4.76-5.59 6.96-5.22-3.79-12.54-7.33-18.69-3.51-2.98 1.48-4 6.08-.83 7.92 6.32 2.77 13.61 2.23 19.96 4.97 3.76 1.66 6.83 5.39 6.86 9.61.69 6.91-4.31 13.44-10.72 15.61-10.29 3.64-22.04.49-30.08-6.62 1.9-2.49 4.1-4.71 6.37-6.86 4.99 3.87 11.01 7.57 17.62 6.39 3.81-.36 8.49-3.99 6.32-8.19-2.32-2.96-6.44-2.91-9.79-3.7-5.51-1.04-11.49-2.13-15.75-6.07-4.47-4.75-3.29-12.58.92-17.09zM153.46 34.71c7.13-2.17 15.15-1.38 21.68 2.23 7.14 4.03 12.18 11.77 12.42 20.03.55 7.53-2.8 15.2-8.56 20.05-10.01 8.43-26.5 8.16-35.83-1.19-5.99-5.72-8.91-14.65-6.92-22.75 1.9-8.6 8.69-15.99 17.21-18.37zM289.53 33.64c3.39-.04 6.79-.24 10.16.22-.15 9.07-.05 18.14-.07 27.21-.24 5.83 4.35 11.71 10.42 11.76 5.97.86 11.65-3.81 12.28-9.75.5-9.84-.35-19.74.41-29.57 3.15.55 7.07-.85 9.75.78.19 9.25.02 18.51.07 27.76.05 5.63-2.23 11.28-6.38 15.12-7.52 7.36-20.5 7.84-28.71 1.37-5.06-3.88-8.03-10.16-7.96-16.52-.01-9.46-.05-18.92.03-28.38zM344.28 36.35c9.44-5.25 21.15-2.18 29.48 3.81-1.83 2.35-3.65 4.71-5.65 6.92-3.21-2.01-6.46-4.32-10.31-4.82-3.69-.59-8.08.04-10.45 3.23-1.63 2.08-.66 5.36 1.8 6.3 7.04 2.81 15.4 1.79 21.87 6.16 4.4 2.95 5.58 9.06 3.76 13.82-2.04 5.93-7.79 10.02-13.86 10.93-9.39 1.99-19.32-1.41-26.36-7.72 2.07-2.35 4.25-4.59 6.48-6.78 3.82 3.04 8.08 5.97 13.08 6.48 3.94.5 8.61-.4 10.89-3.98 1.49-2.92-1-6.1-3.91-6.68-7.47-2.08-16.45-1.9-22.13-7.96-5.11-6.3-1.39-16.15 5.31-19.71zM217.58 41.15c3.43-.02 6.86-.04 10.28.13.33 9.24.06 18.48.15 27.72-.05 4.65.28 9.34-.51 13.95-3.27.35-6.58.28-9.86.19-.13-14-.03-27.99-.06-41.99z"/><path fill="#2d2b28" d="M158.37 43.46c6.65-1.48 14.21 1.79 17.06 8.12 3.52 7.07.72 16.86-6.62 20.25-7.51 4-18.15.64-21.21-7.51-3.74-8.35 1.48-19.42 10.77-20.86zM254.42 43.65c7.37-2.07 16.07 2 18.43 9.46 2.78 7.4-1.07 16.52-8.57 19.28-7.3 3.04-16.81-.35-19.85-7.82-3.59-8.17.92-19.05 9.99-20.92z"/></svg>

<?xml version="1.0" encoding="UTF-8" ?>
<!DOCTYPE svg PUBLIC "-//W3C//DTD SVG 1.1//EN" "http://www.w3.org/Graphics/SVG/1.1/DTD/svg11.dtd">
<svg width="389pt" height="112pt" viewBox="0 0 389 112" version="1.1" xmlns="http://www.w3.org/2000/svg">
<path fill="#2d2b28" d=" M 0.00 0.00 L 389.00 0.00 L 389.00 112.00 L 0.00 112.00 L 0.00 0.00 Z" />
<path fill="#eb8f35" d=" M 12.34 12.34 C 30.77 12.27 49.21 12.27 67.64 12.35 C 67.68 42.10 67.72 71.86 67.62 101.61 C 49.20 101.67 30.78 101.67 12.36 101.61 C 12.22 71.86 12.27 42.10 12.34 12.34 Z" />
<path fill="#ffffff" d=" M 187.54 13.06 C 192.28 14.99 197.23 17.38 200.33 21.61 C 202.98 25.17 202.83 29.76 203.01 33.97 C 203.05 43.33 203.01 52.69 203.00 62.05 C 203.08 64.44 202.98 66.95 203.92 69.21 C 206.01 71.97 209.40 73.27 212.26 75.07 C 210.85 77.74 209.39 80.39 207.78 82.95 C 202.91 80.60 197.66 78.09 194.68 73.35 C 192.06 69.04 192.64 63.81 192.59 59.00 C 192.53 49.40 192.74 39.80 192.49 30.20 C 192.58 24.98 186.97 23.04 183.30 20.71 C 184.66 18.13 186.09 15.59 187.54 13.06 Z" />
<path fill="#2d2b28" d=" M 20.11 20.12 C 33.36 19.99 46.63 19.99 59.88 20.11 C 59.98 44.68 60.06 69.26 59.84 93.82 C 46.60 94.03 33.35 93.97 20.10 93.86 C 19.87 69.28 19.87 44.69 20.11 20.12 Z" />
<path fill="#ffffff" d=" M 220.47 21.24 C 223.56 19.46 228.01 22.43 227.54 25.99 C 227.73 30.35 221.41 32.54 218.81 29.11 C 216.43 26.80 217.56 22.54 220.47 21.24 Z" />
<path fill="#ffffff" d=" M 274.38 20.81 C 277.70 20.68 281.01 20.67 284.33 20.73 C 284.41 41.53 284.45 62.34 284.31 83.15 C 281.05 83.23 277.79 83.22 274.54 83.10 C 274.43 81.57 274.32 80.04 274.21 78.52 C 268.16 82.04 260.97 84.03 253.98 82.70 C 243.69 81.51 234.84 73.14 232.91 62.99 C 230.22 50.90 238.52 37.81 250.41 34.67 C 258.44 32.12 267.19 33.94 274.33 38.13 C 274.43 32.36 274.33 26.58 274.38 20.81 Z" />
<path fill="#eb8f35" d=" M 32.24 30.18 C 37.17 32.27 42.80 35.51 43.53 41.37 C 44.19 51.22 43.22 61.13 43.92 70.97 C 44.04 74.90 48.28 76.21 50.94 78.21 C 49.98 80.18 48.93 82.10 47.80 83.98 C 42.82 82.00 37.08 78.71 36.44 72.81 C 35.97 63.87 36.51 54.90 36.27 45.95 C 36.15 44.17 36.06 42.32 35.31 40.68 C 33.49 38.75 31.15 37.42 28.98 35.93 C 30.03 33.99 31.12 32.08 32.24 30.18 Z" />
<path fill="#ffffff" d=" M 96.42 39.43 C 99.79 35.59 104.98 33.86 109.96 33.56 C 117.10 33.18 124.08 35.89 129.82 40.01 C 128.05 42.40 126.23 44.77 124.23 46.97 C 119.01 43.18 111.69 39.64 105.54 43.46 C 102.56 44.94 101.54 49.54 104.71 51.38 C 111.03 54.15 118.32 53.61 124.67 56.35 C 128.43 58.01 131.50 61.74 131.53 65.96 C 132.22 72.87 127.22 79.40 120.81 81.57 C 110.52 85.21 98.77 82.06 90.73 74.95 C 92.63 72.46 94.83 70.24 97.10 68.09 C 102.09 71.96 108.11 75.66 114.72 74.48 C 118.53 74.12 123.21 70.49 121.04 66.29 C 118.72 63.33 114.60 63.38 111.25 62.59 C 105.74 61.55 99.76 60.46 95.50 56.52 C 91.03 51.77 92.21 43.94 96.42 39.43 Z" />
<path fill="#ffffff" d=" M 153.46 34.71 C 160.59 32.54 168.61 33.33 175.14 36.94 C 182.28 40.97 187.32 48.71 187.56 56.97 C 188.11 64.50 184.76 72.17 179.00 77.02 C 168.99 85.45 152.50 85.18 143.17 75.83 C 137.18 70.11 134.26 61.18 136.25 53.08 C 138.15 44.48 144.94 37.09 153.46 34.71 Z" />
<path fill="#ffffff" d=" M 289.53 33.64 C 292.92 33.60 296.32 33.40 299.69 33.86 C 299.54 42.93 299.64 52.00 299.62 61.07 C 299.38 66.90 303.97 72.78 310.04 72.83 C 316.01 73.69 321.69 69.02 322.32 63.08 C 322.82 53.24 321.97 43.34 322.73 33.51 C 325.88 34.06 329.80 32.66 332.48 34.29 C 332.67 43.54 332.50 52.80 332.55 62.05 C 332.60 67.68 330.32 73.33 326.17 77.17 C 318.65 84.53 305.67 85.01 297.46 78.54 C 292.40 74.66 289.43 68.38 289.50 62.02 C 289.49 52.56 289.45 43.10 289.53 33.64 Z" />
<path fill="#ffffff" d=" M 344.28 36.35 C 353.72 31.10 365.43 34.17 373.76 40.16 C 371.93 42.51 370.11 44.87 368.11 47.08 C 364.90 45.07 361.65 42.76 357.80 42.26 C 354.11 41.67 349.72 42.30 347.35 45.49 C 345.72 47.57 346.69 50.85 349.15 51.79 C 356.19 54.60 364.55 53.58 371.02 57.95 C 375.42 60.90 376.60 67.01 374.78 71.77 C 372.74 77.70 366.99 81.79 360.92 82.70 C 351.53 84.69 341.60 81.29 334.56 74.98 C 336.63 72.63 338.81 70.39 341.04 68.20 C 344.86 71.24 349.12 74.17 354.12 74.68 C 358.06 75.18 362.73 74.28 365.01 70.70 C 366.50 67.78 364.01 64.60 361.10 64.02 C 353.63 61.94 344.65 62.12 338.97 56.06 C 333.86 49.76 337.58 39.91 344.28 36.35 Z" />
<path fill="#ffffff" d=" M 217.58 41.15 C 221.01 41.13 224.44 41.11 227.86 41.28 C 228.19 50.52 227.92 59.76 228.01 69.00 C 227.96 73.65 228.29 78.34 227.50 82.95 C 224.23 83.30 220.92 83.23 217.64 83.14 C 217.51 69.14 217.61 55.15 217.58 41.15 Z" />
<path fill="#2d2b28" d=" M 158.37 43.46 C 165.02 41.98 172.58 45.25 175.43 51.58 C 178.95 58.65 176.15 68.44 168.81 71.83 C 161.30 75.83 150.66 72.47 147.60 64.32 C 143.86 55.97 149.08 44.90 158.37 43.46 Z" />
<path fill="#2d2b28" d=" M 254.42 43.65 C 261.79 41.58 270.49 45.65 272.85 53.11 C 275.63 60.51 271.78 69.63 264.28 72.39 C 256.98 75.43 247.47 72.04 244.43 64.57 C 240.84 56.40 245.35 45.52 254.42 43.65 Z" />
</svg>
